packages/brickdoc-design-icons/assets/edit/drag-secondary.svg

<svg width="1em" height="1em" viewBox="0 0 24 24" fill="none" xmlns="http://www.w3.org/2000/svg">
<path fill-rule="evenodd" clip-rule="evenodd" d="M1 12C1 5.92487 5.92487 1 12 1C18.0751 1 23 5.92487 23 12C23 18.0751 18.0751 23 12 23C5.92487 23 1 18.0751 1 12ZM12 3C7.02943 3 3 7.02943 3 12C3 16.9706 7.02943 21 12 21C16.9706 21 21 16.9706 21 12C21 7.02943 16.9706 3 12 3Z" fill="#2C5BFF"/>
<path fill-rule="evenodd" clip-rule="evenodd" d="M7.83333 8.5C7.3731 8.5 7 8.94772 7 9.5C7 10.0523 7.3731 10.5 7.83333 10.5H16.1667C16.6269 10.5 17 10.0523 17 9.5C17 8.94772 16.6269 8.5 16.1667 8.5H7.83333ZM7.83333 13.5C7.3731 13.5 7 13.9477 7 14.5C7 15.0523 7.3731 15.5 7.83333 15.5H16.1667C16.6269 15.5 17 15.0523 17 14.5C17 13.9477 16.6269 13.5 16.1667 13.5H7.83333Z" fill="#3E3E3E"/>
</svg>

<svg  viewBox="0 0 24 24" width="1em" height="1em" fill="none" xmlns="http://www.w3.org/2000/svg"><path fill-rule="evenodd" clip-rule="evenodd" d="M1 12C1 5.925 5.925 1 12 1s11 4.925 11 11-4.925 11-11 11S1 18.075 1 12Zm11-9a9 9 0 1 0 0 18 9 9 0 0 0 0-18Z" fill="#2C5BFF"/><path fill-rule="evenodd" clip-rule="evenodd" d="M7.833 8.5c-.46 0-.833.448-.833 1s.373 1 .833 1h8.334c.46 0 .833-.448.833-1s-.373-1-.833-1H7.833Zm0 5c-.46 0-.833.448-.833 1s.373 1 .833 1h8.334c.46 0 .833-.448.833-1s-.373-1-.833-1H7.833Z" fill="#34313c"/></svg>
